X: 81
T: Aman Avcı Vurma Beni
C: (Anonim)
O: Turkey
F: http://compmusic.upf.edu/node/140
N: nihavent--turku--azeriyuruksemai--aman_avci--
N: makam= nihavent
N: form= turku
N: usul= azeriyuruksemai = 6/8
M: 6/8
L: 1/16
K: C _B _e  
Q: 1/4=264
%%MIDI tuningsystem comma53
d4 e2d2 c2B2  | c4 d2c2 B2A2  | B4 c2B2 A2G2  | \
w:  ARANAĞME  |   |   | 
B2A2 G2A2 G2^F2  | 
w:   | 
G2A2 B2c2 d4  | d4 e2d2 c2B2  | c4 d2c2 B2A2  | \
w:   |  ARANAĞME  |   | 
B4 c2B2 A2G2  | B2A2 G2A2 G2^F2  | 
w:   |   | 
G6cd e^fge  | d4 d2d6  | g6g2 ^f2e2  | ^f4 g2f2 e2d2  | \
w:   |  A man_ av  |  cı   |  vur ma  be  | 
d4 e2d2 c2B2  | 
w:  ni    | 
d4 d2c2 B2A2  | c2c4B2 A2G2  | B2B2 A2G4^F2  | \
w:  Ben  bu  da  |  ğın_ ay  ba lam   |  ma ra *  lı  | 
G6cd e^fge  | 
w:  yam   SAZ  | 
d4 d2d6  | g6g2 ^f2e2  | ^f4 g2f2 e2d2  | \
w:  A man_ av  |  cı   |  vur ma  be  | 
d4 e2d2 c2B2  | d4 d2c2 B2A2  | 
w:  ni    |  Ben  bu  da  | 
c2c4B2 A2G2  | B2B2 A2G4^F2  | G6cd e^fge  | \
w:  ğın_ ay  ba lam   |  ma ra *  lı  |  yam   SAZ  | 
d4 d2d2 {e}d2c2  | 
w:  Hem  ma ra  | 
c2B2 c2B4A2  | c4 c2c2 B2A2  | c2B2 c2B4A2  | \
w:  lı   |  hem  ya ra  |  lı    | 
c4 c2c2 B2A2  | d2d4B2 A2G2  | 
w:  Av cı  vur  |  muş_ ay  ba lam   | 
B2B2 A2G2 {A}G2^F2  | G6B2 c2d2  | d4 d2d2 {e}d2c2  | \
w:  ya ra *  lı  |  yam   SAZ  |  Hem  ma ra  | 
c2B2 c2B4A2  | c4 c2c2 B2A2  | 
w:  lı   |  hem  ya ra  | 
c2B2 c2B4A2  | c4 c2c2 B2A2  | d2d4B2 A2G2  | \
w:  lı    |  Av cı  vur  |  muş_ ay  ba lam   | 
B2B2 A2G2 {A}G2^F2  | 
w:  ya ra *  lı  | 
G6B2 c2d2  | d4 e2d2 c2B2  | c4 d2c2 B2A2  | \
w:  yam   SAZ  |  ARANAĞME  |   | 
B4 c2B2 A2G2  | B2A2 G2A2 G2^F2  | 
w:   |   | 
G2A2 B2c2 d4  | d4 e2d2 c2B2  | c4 d2c2 B2A2  | \
w:   |  ARANAĞME  |   | 
B4 c2B2 A2G2  | B2A2 G2A2 G2^F2  | 
w:   |   | 
G6cd e^fge  | d4 d2d6  | g6g2 ^f2e2  | ^f4 g2f2 e2d2  | \
w:   |  A man_ av  |  cı   |  vur ma  be  | 
d4 e2d2 c2B2  | 
w:  ni    | 
d4 d2c2 B2A2  | c2c4B2 A2G2  | B2B2 A2G4^F2  | \
w:  Ben  bu  da  |  ğın_ ay  ba lam   |  ma ra *  lı  | 
G6cd e^fge  | 
w:  yam   SAZ  | 
d4 d2d6  | g6g2 ^f2e2  | ^f4 g2f2 e2d2  | \
w:  A man_ av  |  cı   |  vur ma  be  | 
d4 e2d2 c2B2  | d4 d2c2 B2A2  | 
w:  ni    |  Ben  bu  da  | 
c2c4B2 A2G2  | B2B2 A2G4^F2  | G6cd e^fge  | \
w:  ğın_ ay  ba lam   |  ma ra *  lı  |  yam   SAZ  | 
d4 d2d2 {e}d2c2  | 
w:  Hem  ma ra  | 
c2B2 c2B4A2  | c4 c2c2 B2A2  | c2B2 c2B4A2  | \
w:  lı   |  hem  ya ra  |  lı    | 
c4 c2c2 B2A2  | d2d4B2 A2G2  | 
w:  Av cı  vur  |  muş_ ay  ba lam   | 
B2B2 A2G2 {A}G2^F2  | G6|
w:  ya ra *  lı  |  yam    | 


